icon/lg/discourse.svg

<?xml version="1.0" encoding="UTF-8"?>
<svg viewBox="0 0 512 139" version="1.1" xmlns="http://www.w3.org/2000/svg" preserveAspectRatio="xMidYMid" height="1em" width="1em">
  <g>
    <path d="M156.325699,29.5873683 C158.521981,29.5576994 160.631046,30.4457267 162.144637,32.0374474 C163.732367,33.6066217 164.608154,35.7575943 164.568085,37.9895417 C164.607805,40.1966353 163.741603,42.3236428 162.171268,43.8750578 C160.680925,45.4508782 158.601058,46.3339773 156.432224,46.3118212 C154.218723,46.3425218 152.093657,45.4441984 150.573339,43.8351109 C148.981925,42.2410922 148.10711,40.0684736 148.149892,37.8164383 C148.149868,33.2893823 151.811982,29.6153583 156.339015,29.6006839 L156.325699,29.5873683 L156.325699,29.5873683 Z M149.880926,57.6168058 L162.770472,57.6168058 L162.770472,111.358758 L149.880926,111.358758 L149.880926,57.6168058 Z M205.939801,66.1255044 L197.950412,74.1148928 C194.701395,70.8658748 191.745321,69.2413659 189.082191,69.2413659 C187.880699,69.1715502 186.68905,69.4939966 185.686701,70.1601455 C184.923512,70.6729107 184.464538,71.5309923 184.461662,72.4504369 C184.466075,73.1645084 184.742218,73.8501074 185.233969,74.3678901 C186.381264,75.3730772 187.679973,76.1909491 189.082191,76.7913379 L193.809246,79.1482074 C198.780421,81.6071637 202.198104,84.1105054 204.062295,86.6582325 C208.50903,93.0642574 207.554607,101.767694 201.825266,107.057804 C198.469723,110.111526 193.973472,111.638387 188.336515,111.638387 C181.291365,111.832909 174.600638,108.552263 170.440285,102.863375 L178.429674,94.2215202 C179.922193,95.9668195 181.728852,97.4166639 183.755932,98.4958429 C185.374676,99.4602131 187.201275,100.021892 189.082191,100.133668 C190.553401,100.207545 192.005521,99.7751982 193.196726,98.908628 C194.141123,98.2680349 194.720624,97.213047 194.754657,96.0723951 C194.754657,94.0839252 192.881589,92.1487177 189.135454,90.2667729 L184.794553,88.0963224 C176.485589,83.906332 172.331107,78.6644056 172.331107,72.370543 C172.299972,68.3792725 174.017526,64.5743808 177.031531,61.9577068 C180.317261,59.0213411 184.611889,57.4705036 189.015613,57.6301214 C195.687011,57.593628 201.973105,60.7515238 205.926485,66.1255044 L205.939801,66.1255044 L205.939801,66.1255044 Z M265.99337,69.3345754 L255.260958,75.2334071 C253.590371,73.3742978 251.555312,71.8785983 249.282233,70.8392435 C247.077241,69.9793992 244.724255,69.5631015 242.358096,69.614204 C238.036061,69.4253989 233.81918,70.9797443 230.653642,73.9284737 C227.662486,76.8113103 226.036173,80.8286911 226.179585,84.980461 C226.049756,88.9784271 227.61125,92.8459066 230.480539,95.6329788 C233.527464,98.5050955 237.601506,100.031061 241.785523,99.8673546 C247.555637,99.8673546 252.047449,97.9010773 255.260958,93.9685229 L265.434113,100.932606 C259.921435,108.096425 252.145097,111.678334 242.105099,111.678334 C233.068212,111.678334 225.993166,109.015204 220.879957,103.688945 C214.90978,97.6879545 212.139205,89.2112694 213.412742,80.8426967 C214.686277,72.4741239 219.853008,65.2053439 227.338046,61.2519775 C231.955047,58.7976779 237.116448,57.5474008 242.344781,57.6168058 C247.101247,57.5401651 251.808907,58.584791 256.086529,60.666089 C260.075582,62.6611225 263.486472,65.6456511 265.99337,69.3345754 Z M297.751189,57.616692 C302.550187,57.6029349 307.2677,58.8569574 311.426359,61.2519775 C319.85148,65.9876691 325.049612,74.9162231 325.008584,84.5809915 C325.029484,89.3521977 323.784267,94.0435845 321.399778,98.1762674 C319.088737,102.308326 315.696174,105.733111 311.586146,108.083109 C307.402192,110.468032 302.660107,111.699504 297.844398,111.651702 C290.735787,111.758664 283.902054,108.908462 278.976126,103.782155 C273.855207,98.7578359 271.028301,91.8470875 271.159841,84.6742011 C271.093019,69.8691181 282.986858,57.7849795 297.791136,57.616692 L297.751189,57.616692 Z M297.964239,69.7606761 C294.188802,69.6732666 290.553821,71.1930857 287.964188,73.9417894 C285.271012,76.8213608 283.833805,80.653911 283.969494,84.5943072 C283.804668,88.6030363 285.241989,92.5125527 287.964188,95.4598754 C290.549649,98.2116155 294.19003,99.723997 297.964239,99.6143573 C301.771353,99.7178423 305.440562,98.1861778 308.044184,95.4066128 C310.761997,92.4779919 312.199747,88.5864808 312.038878,84.5943072 C312.193706,80.6229901 310.755566,76.7543919 308.044184,73.8485798 C305.419339,71.1131459 301.752952,69.6262496 297.964239,69.7606761 L297.964239,69.7606761 Z M332.891182,58.9483705 L345.927201,58.9483705 L345.927201,83.6888432 C345.760393,87.0657494 346.092416,90.4487974 346.912559,93.7288412 C347.490238,95.4854405 348.60887,97.0142362 350.108314,98.0963735 C351.705294,99.174235 353.602199,99.7195367 355.527782,99.6543043 C357.466004,99.7180734 359.376842,99.1834104 361.000513,98.1230048 C362.567528,97.0133248 363.738635,95.4316303 364.342741,93.6090004 C364.875367,92.126525 365.14168,88.9618395 365.14168,84.1149439 L365.14168,58.9483705 L378.031226,58.9483705 L378.031226,80.7194538 C378.031226,89.6942001 377.321059,95.8327135 375.900723,99.134994 C374.362643,102.952349 371.690183,106.205778 368.244226,108.455947 C364.361475,110.748156 359.89991,111.871638 355.394626,111.691649 C349.757669,111.691649 345.199278,110.431101 341.719456,107.910006 C338.181545,105.302012 335.602671,101.599854 334.382535,97.3773286 C333.388299,94.2348358 332.891182,88.5534929 332.891182,80.3333001 L332.891182,58.9483705 L332.891182,58.9483705 Z M386.566556,58.9483705 L397.618543,58.9483705 L397.618543,65.4197751 C398.640505,63.0812259 400.29057,61.0716491 402.385545,59.6141529 C404.306547,58.3119207 406.57613,57.6203708 408.896897,57.6300197 C410.724348,57.6680732 412.518905,58.1235443 414.143262,58.9616862 L410.148568,70.066936 C409.005048,69.417928 407.731518,69.0313211 406.420186,68.935106 C404.431717,68.935106 402.753945,70.164584 401.386872,72.6235403 C400.019798,75.0824965 399.336262,79.8983222 399.336262,87.0710176 L399.336262,110.333453 L386.539925,110.333453 L386.566556,58.9483705 L386.566556,58.9483705 Z M450.641451,66.1255044 L442.652063,74.1148928 C439.411922,70.8658748 436.469164,69.2413659 433.823788,69.2413659 C432.622296,69.1715502 431.430647,69.4939966 430.428298,70.1601455 C429.665109,70.6729107 429.206135,71.5309923 429.203259,72.4504369 C429.207672,73.1645084 429.483816,73.8501074 429.975566,74.3678901 C431.126278,75.3580507 432.424689,76.1622577 433.823788,76.7513909 L438.550843,79.1082605 C443.522018,81.5672167 446.939701,84.0705584 448.803892,86.6182856 C453.244655,93.0258264 452.290702,101.724972 446.566863,107.017857 C443.21132,110.071579 438.715069,111.59844 433.078112,111.59844 C426.011919,111.807616 419.296843,108.519819 415.12862,102.810113 L423.118008,94.1682576 C424.610085,95.9140122 426.416837,97.3639309 428.444267,98.4425804 C430.088094,99.4140709 431.94337,99.9715678 433.85042,100.067089 C435.32163,100.140966 436.773749,99.70862 437.964955,98.8420498 C438.85057,98.1925604 439.38631,97.1702335 439.41636,96.0723951 C439.41636,94.0839252 437.543292,92.1487177 433.797157,90.2667729 L429.456256,88.0963224 C421.147292,83.906332 416.99281,78.6644056 416.99281,72.370543 C416.961676,68.3792725 418.679229,64.5743808 421.693234,61.9577068 C424.979687,59.0225516 429.273809,57.4718961 433.677316,57.6301214 C440.348714,57.593628 446.634809,60.7515238 450.588188,66.1255044 L450.641451,66.1255044 L450.641451,66.1255044 Z M511.880113,88.3626354 L470.46845,88.3626354 C470.927351,91.7607031 472.636505,94.8656669 475.262083,97.0710687 C478.084039,99.3044473 481.613013,100.452427 485.208871,100.306771 C489.862737,100.377196 494.345959,98.5560365 497.63237,95.2601407 L508.497938,100.360034 C506.034938,103.985845 502.683732,106.919869 498.7642,108.882048 C494.545581,110.81493 489.940889,111.75773 485.302081,111.638387 C477.241676,111.638387 470.677062,109.095098 465.608239,104.008521 C460.57703,98.9554085 457.846629,92.054765 458.058267,84.9271984 C457.832056,77.6581107 460.566334,70.6085772 465.63487,65.3931438 C470.601887,60.2502946 477.502495,57.4330299 484.649614,57.6301214 C492.73665,57.6301214 499.319019,60.2177955 504.396719,65.3931438 C509.474419,70.5684921 512.008831,77.4082962 511.999977,85.9125563 L511.880113,88.3626354 L511.880113,88.3626354 Z M498.990566,78.2027965 C498.172292,75.3783546 496.415676,72.9172139 494.010514,71.2253973 C491.460713,69.4322277 488.40533,68.499286 485.288765,68.5622679 C481.885997,68.4983412 478.55753,69.5610165 475.82134,71.5849198 C473.723465,73.3829206 472.100085,75.6693696 471.094285,78.2427434 L498.990566,78.2027965 L498.990566,78.2027965 Z M69.0682625,0 C31.5713997,0 0,30.3996227 0,67.9098011 L0,138.229734 L69.0549468,138.163156 C106.55181,138.163156 136.964748,106.591756 136.964748,69.0948937 C136.964748,31.598031 106.525178,0 69.0682625,0 Z" fill="#000000"/>
    <path d="M69.7340448,26.2850877 C54.9030692,26.2938413 41.1705207,34.1048166 33.5826507,46.8477418 C25.9947807,59.5906671 25.6708381,75.3858969 32.729861,88.4292136 L25.1133108,112.930005 L52.4636503,106.751544 C68.1255134,113.807852 86.5038618,110.638616 98.8977953,98.7442537 C111.291729,86.8498918 115.213992,68.6174041 108.807658,52.6786359 C102.401325,36.7398678 86.9520407,26.2934641 69.7739918,26.2850877 L69.7340448,26.2850877 Z" fill="#FFF9AE"/>
    <path d="M102.6469,94.4263978 C90.691188,109.508505 70.0263704,114.556426 52.4636503,106.684966 L25.1133108,112.94332 L52.9563292,109.654355 C71.414331,120.466911 95.0473381,115.709562 107.884055,98.5973472 C120.720771,81.485132 118.675174,57.4649964 103.129688,42.7698591 C114.801418,58.0727913 114.602613,79.3442903 102.6469,94.4263978 Z" fill="#00AEEF"/>
    <path d="M100.292287,86.4303264 C89.9769645,102.677823 69.95298,109.855902 51.6647115,103.862049 L25.1133108,112.94332 L52.4636503,106.751544 C71.942469,115.550377 94.9231641,108.347865 105.895406,90.0051894 C116.867649,71.6625143 112.345024,48.008035 95.3799815,35.0068367 C108.584808,49.0075365 110.60761,70.1828294 100.292287,86.4303264 Z" fill="#00A94F"/>
    <path d="M35.2465184,89.3613089 C27.6236873,70.9867801 33.9056656,49.7843716 50.3076976,38.5280751 C66.7097296,27.2717787 88.7527512,29.0354617 103.156319,42.7565434 C89.8164685,25.2503412 65.241781,20.9772157 46.7755301,32.9528711 C28.3092792,44.9285263 22.1871952,69.1089926 32.729861,88.4292136 L25.1133108,112.930005 L35.2465184,89.3613089 Z" fill="#F15D22"/>
    <path d="M32.729861,88.4292136 C23.2713817,70.9583841 27.3167766,49.2528778 42.4338958,36.3623609 C57.5510149,23.4718441 79.6230538,22.9067564 95.3799815,35.0068367 C80.2649648,19.0913317 55.4571961,17.4625971 38.3910555,31.2652735 C21.324915,45.06795 17.7302473,69.6678796 30.1333098,87.7767469 L25.1266264,112.94332 L32.729861,88.4292136 Z" fill="#D0232B"/>
  </g>
</svg>

<svg width="512" height="139" xmlns="http://www.w3.org/2000/svg" preserveAspectRatio="xMidYMid"><path d="M156.326 29.587a7.883 7.883 0 0 1 5.819 2.45 8.162 8.162 0 0 1 2.423 5.953 8.07 8.07 0 0 1-2.397 5.885 7.79 7.79 0 0 1-5.739 2.437 7.91 7.91 0 0 1-5.859-2.477 8.296 8.296 0 0 1-2.423-6.019 8.216 8.216 0 0 1 8.189-8.215l-.013-.014Zm-6.445 28.03h12.89v53.742h-12.89V57.617Zm56.059 8.509-7.99 7.989c-3.249-3.25-6.205-4.874-8.868-4.874a5.553 5.553 0 0 0-3.395.92 2.77 2.77 0 0 0-1.225 2.29c.004.714.28 1.4.772 1.917a14.5 14.5 0 0 0 3.848 2.423l4.727 2.357c4.971 2.46 8.39 4.963 10.253 7.51a15.633 15.633 0 0 1-2.237 20.4c-3.355 3.054-7.852 4.58-13.488 4.58a21.438 21.438 0 0 1-17.897-8.775l7.99-8.641a18.362 18.362 0 0 0 5.326 4.274 11.771 11.771 0 0 0 5.326 1.638 6.445 6.445 0 0 0 4.115-1.225 3.555 3.555 0 0 0 1.558-2.837c0-1.988-1.873-3.923-5.62-5.805l-4.34-2.17c-8.31-4.19-12.464-9.433-12.464-15.726a13.649 13.649 0 0 1 4.7-10.413 17.057 17.057 0 0 1 11.985-4.328 20.852 20.852 0 0 1 16.91 8.496h.014Zm60.053 3.209-10.732 5.898a18.23 18.23 0 0 0-5.979-4.394 17.99 17.99 0 0 0-6.924-1.225 16.139 16.139 0 0 0-11.704 4.314 14.647 14.647 0 0 0-4.474 11.052 14.208 14.208 0 0 0 4.3 10.653 15.593 15.593 0 0 0 11.306 4.234c5.77 0 10.261-1.966 13.475-5.898l10.173 6.964c-5.513 7.163-13.289 10.745-23.329 10.745-9.037 0-16.112-2.663-21.225-7.99a26.698 26.698 0 0 1 6.458-42.436 31.092 31.092 0 0 1 15.007-3.635 30.293 30.293 0 0 1 13.742 3.05c3.989 1.994 7.4 4.979 9.906 8.668Zm31.758-11.718a27.245 27.245 0 0 1 13.675 3.635 26.632 26.632 0 0 1 13.583 23.329 26.967 26.967 0 0 1-3.61 13.595 26.072 26.072 0 0 1-9.813 9.907 27.204 27.204 0 0 1-13.742 3.569 25.633 25.633 0 0 1-18.868-7.87 26.099 26.099 0 0 1-7.816-19.108c-.067-14.805 11.827-26.889 26.631-27.057h-.04Zm.213 12.144a13.316 13.316 0 0 0-10 4.18 14.847 14.847 0 0 0-3.995 10.653 15.1 15.1 0 0 0 3.995 10.866 13.196 13.196 0 0 0 10 4.154 13.316 13.316 0 0 0 10.08-4.207 15.007 15.007 0 0 0 3.995-10.813 14.9 14.9 0 0 0-3.995-10.745 13.316 13.316 0 0 0-10.08-4.088Zm34.927-10.813h13.036v24.74c-.167 3.378.165 6.76.986 10.04a8.762 8.762 0 0 0 3.195 4.368 9.135 9.135 0 0 0 5.42 1.558A9.44 9.44 0 0 0 361 98.123a9.001 9.001 0 0 0 3.342-4.514c.532-1.482.799-4.647.799-9.494V58.948h12.89V80.72c0 8.975-.71 15.114-2.131 18.416a20.107 20.107 0 0 1-7.657 9.32 23.436 23.436 0 0 1-12.85 3.237c-5.636 0-10.195-1.26-13.675-3.782a19.973 19.973 0 0 1-7.336-10.533c-.995-3.142-1.492-8.824-1.492-17.044V58.948Zm53.676 0h11.052v6.472a13.808 13.808 0 0 1 4.767-5.806 11.519 11.519 0 0 1 6.51-1.984c1.828.038 3.623.494 5.247 1.332l-3.994 11.105a8.868 8.868 0 0 0-3.729-1.132c-1.988 0-3.666 1.23-5.033 3.689-1.367 2.458-2.05 7.274-2.05 14.447v23.262H386.54l.027-51.385Zm64.074 7.178-7.989 7.989c-3.24-3.25-6.183-4.874-8.828-4.874a5.553 5.553 0 0 0-3.396.92 2.77 2.77 0 0 0-1.225 2.29c.005.714.28 1.4.773 1.917 1.15.99 2.449 1.794 3.848 2.383l4.727 2.357c4.971 2.46 8.389 4.963 10.253 7.51a15.646 15.646 0 0 1-2.237 20.4c-3.356 3.054-7.852 4.58-13.489 4.58a21.438 21.438 0 0 1-17.95-8.788l7.99-8.642a18.336 18.336 0 0 0 5.326 4.275c1.644.971 3.5 1.529 5.406 1.624a6.445 6.445 0 0 0 4.115-1.225 3.555 3.555 0 0 0 1.451-2.77c0-1.988-1.873-3.923-5.619-5.805l-4.34-2.17c-8.31-4.19-12.464-9.433-12.464-15.726a13.649 13.649 0 0 1 4.7-10.413 17.07 17.07 0 0 1 11.984-4.328 20.852 20.852 0 0 1 16.911 8.496h.053Zm61.24 22.237h-41.413a13.782 13.782 0 0 0 4.794 8.708 15.047 15.047 0 0 0 9.947 3.236c4.654.07 9.137-1.751 12.423-5.047l10.866 5.1a25.646 25.646 0 0 1-9.734 8.522 30.44 30.44 0 0 1-13.462 2.756c-8.06 0-14.625-2.543-19.694-7.63a25.952 25.952 0 0 1-7.55-19.08 26.831 26.831 0 0 1 7.577-19.535 25.46 25.46 0 0 1 19.015-7.763c8.087 0 14.669 2.588 19.747 7.763 5.077 5.175 7.612 12.015 7.603 20.52l-.12 2.45Zm-12.89-10.16a12.93 12.93 0 0 0-4.98-6.978 14.647 14.647 0 0 0-8.722-2.663 15.433 15.433 0 0 0-9.468 3.023 16.844 16.844 0 0 0-4.727 6.658l27.897-.04ZM69.068 0C31.571 0 0 30.4 0 67.91v70.32l69.055-.067c37.497 0 67.91-31.571 67.91-69.068S106.525 0 69.068 0Z"/><path d="M69.734 26.285A42.104 42.104 0 0 0 32.73 88.43l-7.617 24.501 27.35-6.178a42.09 42.09 0 1 0 17.311-80.467h-.04Z" fill="#FFF9AE"/><path d="M102.647 94.426c-11.956 15.083-32.62 20.13-50.183 12.259l-27.35 6.258 27.842-3.289c18.458 10.813 42.091 6.056 54.928-11.057 12.837-17.112 10.791-41.132-4.754-55.827 11.671 15.303 11.473 36.574-.483 51.656Z" fill="#00AEEF"/><path d="M100.292 86.43c-10.315 16.248-30.339 23.426-48.627 17.432l-26.552 9.081 27.35-6.191c19.48 8.798 42.46 1.596 53.432-16.747 10.973-18.342 6.45-41.997-10.515-54.998 13.205 14 15.228 35.176 4.912 51.423Z" fill="#00A94F"/><path d="M35.247 89.361c-7.623-18.374-1.341-39.577 15.06-50.833 16.403-11.256 38.446-9.493 52.85 4.229-13.34-17.507-37.915-21.78-56.381-9.804C28.309 44.929 22.187 69.109 32.73 88.429l-7.617 24.501 10.134-23.569Z" fill="#F15D22"/><path d="M32.73 88.43c-9.459-17.472-5.413-39.177 9.704-52.068 15.117-12.89 37.19-13.455 52.946-1.355-15.115-15.916-39.923-17.544-56.989-3.742-17.066 13.803-20.66 38.403-8.258 56.512l-5.006 25.166L32.73 88.43Z" fill="#D0232B"/></svg>
